images_sukapura_svg/cmd/32/basicshapes.paper.svg

<svg viewBox="0 0 32 32" xmlns="http://www.w3.org/2000/svg" xmlns:xlink="http://www.w3.org/1999/xlink"><linearGradient id="a" gradientTransform="translate(-55.932203 35.457627)" gradientUnits="userSpaceOnUse" x1="12" x2="12" y1="21.5" y2="2.5"><stop offset="0" stop-color="#e5eefc"/><stop offset="1" stop-color="#fcfdff"/></linearGradient><linearGradient id="b" gradientUnits="userSpaceOnUse" x1="11.745763" x2="11.305085" xlink:href="#a" y1="3.932203" y2="27.79661"/><linearGradient id="c" gradientUnits="userSpaceOnUse" x1="22.254238" x2="21.61017" xlink:href="#a" y1="3.881356" y2="18.932203"/><g transform="matrix(1 0 0 -1 0 32)"><path d="m7 4v24h18v-18.6406494l-6-5.3593506z" fill="url(#b)"/><path d="m7 3c-.554 0-1 .446-1 1v24c0 .554.446 1 1 1h18c.554 0 1-.446 1-1v-16.109375-1.641221-.207924c0-.4506797.09887-.4265949-.604637-1.067589l-5.307389-5.2370335c-.709525-.7368575-1.478385-.7368575-1.094804-.7368575h-.331557-.661613zm0 1h11v6c0 .554.446 1 1 1h6v17h-18z" fill="#0a84ff"/><path d="m19 10h6l-6-6z" fill="url(#c)" fill-rule="evenodd"/></g></svg>

<?xml version="1.0" encoding="UTF-8" standalone="no"?>
<svg
   xmlns:dc="http://purl.org/dc/elements/1.1/"
   xmlns:cc="http://creativecommons.org/ns#"
   xmlns:rdf="http://www.w3.org/1999/02/22-rdf-syntax-ns#"
   xmlns:svg="http://www.w3.org/2000/svg"
   xmlns="http://www.w3.org/2000/svg"
   xmlns:xlink="http://www.w3.org/1999/xlink"
   xmlns:sodipodi="http://sodipodi.sourceforge.net/DTD/sodipodi-0.dtd"
   xmlns:inkscape="http://www.inkscape.org/namespaces/inkscape"
   viewBox="0 0 32 32"
   version="1.1"
   id="svg8"
   sodipodi:docname="basicshapes.paper.svg"
   inkscape:version="0.92.3 (2405546, 2018-03-11)">
  <metadata
     id="metadata14">
    <rdf:RDF>
      <cc:Work
         rdf:about="">
        <dc:format>image/svg+xml</dc:format>
        <dc:type
           rdf:resource="http://purl.org/dc/dcmitype/StillImage" />
        <dc:title></dc:title>
      </cc:Work>
    </rdf:RDF>
  </metadata>
  <defs
     id="defs12">
    <linearGradient
       gradientTransform="translate(-55.932203,35.457627)"
       id="a"
       gradientUnits="userSpaceOnUse"
       x1="12"
       x2="12"
       y1="21.5"
       y2="2.5">
      <stop
         offset="0"
         stop-color="#e5eefc"
         id="stop2" />
      <stop
         offset="1"
         stop-color="#fcfdff"
         id="stop4" />
    </linearGradient>
    <linearGradient
       inkscape:collect="always"
       xlink:href="#a"
       id="linearGradient844"
       x1="11.745763"
       y1="3.9322033"
       x2="11.305085"
       y2="27.79661"
       gradientUnits="userSpaceOnUse" />
    <linearGradient
       inkscape:collect="always"
       xlink:href="#a"
       id="linearGradient852"
       x1="22.254238"
       y1="3.881356"
       x2="21.61017"
       y2="18.932203"
       gradientUnits="userSpaceOnUse" />
  </defs>
  <sodipodi:namedview
     pagecolor="#ffffff"
     bordercolor="#666666"
     borderopacity="1"
     objecttolerance="10"
     gridtolerance="10"
     guidetolerance="10"
     inkscape:pageopacity="0"
     inkscape:pageshadow="2"
     inkscape:window-width="1366"
     inkscape:window-height="716"
     id="namedview10"
     showgrid="false"
     inkscape:zoom="3.6875"
     inkscape:cx="-49.406452"
     inkscape:cy="-23.236462"
     inkscape:window-x="-8"
     inkscape:window-y="-8"
     inkscape:window-maximized="1"
     inkscape:current-layer="svg8" />
  <g
     id="g824"
     transform="matrix(1,0,0,-1,0,32)">
    <path
       id="path2"
       d="M 7,4 V 28 H 25 V 9.3593506 L 19,4 Z"
       inkscape:connector-curvature="0"
       style="fill:url(#linearGradient844);stroke:none;fill-opacity:1" />
    <path
       id="path4"
       d="M 7,3 C 6.446,3 6,3.446 6,4 v 24 c 0,0.554 0.446,1 1,1 h 18 c 0.554,0 1,-0.446 1,-1 V 11.890625 10.249404 10.04148 C 26,9.5908003 26.09887,9.6148851 25.395363,8.973891 L 20.087974,3.7368575 C 19.378449,3 18.609589,3 18.99317,3 H 18.661613 18 Z m 0,1 h 11 v 6 c 0,0.554 0.446,1 1,1 h 6 V 28 H 7 Z"
       inkscape:connector-curvature="0"
       style="fill:#0a84ff;fill-opacity:1" />
    <path
       id="path6"
       d="m 19,10 h 6 L 19,4 Z"
       inkscape:connector-curvature="0"
       style="fill:url(#linearGradient852);fill-rule:evenodd;fill-opacity:1" />
  </g>
</svg>
